assets/src/images/icons/ic_hands.svg

<svg width="49" height="50" viewBox="0 0 49 50" fill="none" xmlns="http://www.w3.org/2000/svg">
<path fill-rule="evenodd" clip-rule="evenodd" d="M47.712 7.9502L41.3053 0.483413C41.2931 0.469253 41.2805 0.455581 41.2673 0.442495C40.7077 -0.116977 39.8006 -0.150082 39.202 0.36691L34.0968 4.77501C33.7938 5.03653 33.6107 5.4006 33.5816 5.79972C33.5525 6.19894 33.6805 6.58556 33.942 6.88849L34.1419 7.12003L33.8126 7.4044C32.9387 8.15919 31.6233 8.38497 30.2947 8.00811L30.1147 7.95704L30.1127 7.95646C29.3539 7.74116 26.4832 6.92663 26.4594 6.9211C25.7702 6.76095 23.9872 6.50802 22.2844 7.60665L22.1028 7.7106L22.0988 7.71286C20.7495 8.4852 12.4982 13.2079 12.4739 13.2238C11.5833 13.804 10.3429 15.2544 11.3432 17.0103C11.3471 17.0171 11.3511 17.0238 11.3552 17.0306C11.7838 17.7296 12.4018 18.1458 13.123 18.2613C13.1498 18.978 13.469 19.6649 14.0368 20.1564C15.1403 21.1115 16.8155 20.9909 17.7706 19.8873L21.3867 15.7092C21.5333 15.5398 21.6562 15.3541 21.755 15.1549L21.9042 15.0934C22.0991 15.8243 22.632 16.552 23.721 16.8606C24.4738 17.0741 25.1276 17.2625 25.7005 17.4275L25.7006 17.4275C28.5805 18.257 29.4133 18.4969 30.4729 18.3798C34.0143 18.0002 34.8259 17.8841 36.6095 16.8575C37.8924 16.1191 39.141 15.256 40.3302 14.2874L40.5477 14.5393C41.0897 15.1669 42.0357 15.2344 42.6613 14.694L47.5211 10.4979C48.2739 9.84786 48.3595 8.70499 47.712 7.9502ZM16.663 18.9283C15.9304 19.7747 14.5477 19.2136 14.5881 18.1157L18.9159 16.3254L16.663 18.9283ZM35.8788 15.5877C34.3613 16.4611 33.8505 16.5441 30.332 16.9214C29.5396 17.0064 28.8882 16.819 26.1832 16.0411L26.1823 16.0409C25.5982 15.8729 24.9184 15.6774 24.1208 15.4512C23.5453 15.288 23.395 14.9803 23.3321 14.7631C23.2492 14.4771 23.2972 14.2034 23.3006 14.1838C23.3007 14.1831 23.3008 14.1827 23.3008 14.1827C23.3012 14.181 23.3014 14.1793 23.3016 14.1776C23.3018 14.1759 23.3021 14.1742 23.3025 14.1725C23.3038 14.1661 23.3057 14.16 23.3069 14.1536C23.3072 14.1518 23.3531 13.956 23.4794 13.7856C23.5886 13.6383 23.7529 13.4948 24.1461 13.5491C25.3966 13.7212 28.2055 14.0972 28.7672 14.1724L28.8658 14.1856C29.2679 14.2393 29.6355 13.9576 29.689 13.5566C29.7426 13.1557 29.461 12.7871 29.0601 12.7335C29.0269 12.7291 25.7291 12.2882 24.3458 12.0979C23.0508 11.9194 22.2877 12.7191 21.987 13.4746L20.9187 13.9151C18.4737 14.9232 16.8975 15.5756 15.8765 15.9981C14.066 16.7474 14.0015 16.7741 13.9349 16.7805C13.9325 16.7808 13.93 16.781 13.9275 16.7812C13.9037 16.7832 13.8721 16.7859 13.7614 16.8179C12.5834 16.9832 11.7763 15.4503 13.2575 14.4621L23.0286 8.86886L23.0307 8.86778C23.0425 8.86095 23.0542 8.85382 23.0656 8.84639C24.2891 8.04991 25.5914 8.22608 26.1114 8.34454L29.895 9.41778C31.6992 9.9293 33.5219 9.59122 34.77 8.51348L35.0993 8.22911L39.373 13.1785C38.2545 14.0866 37.0819 14.8952 35.8788 15.5877ZM46.5638 9.38888L46.5299 9.41815L46.5292 9.41876C46.094 9.7951 41.6991 13.5955 41.6797 13.5932C41.6517 13.5911 35.0104 5.92179 35.0541 5.88399L40.1593 1.4758H40.1594C40.1692 1.4673 40.1815 1.4631 40.1939 1.4631C40.2038 1.4631 40.2137 1.46583 40.2223 1.4713L46.6 8.90431C46.7232 9.04776 46.707 9.26524 46.5638 9.38888ZM35.1657 31.7725C35.0774 29.4104 32.0967 28.3226 30.5182 30.1466L26.9018 34.3249C26.7552 34.4942 26.6324 34.6799 26.5338 34.879L26.3846 34.9405C26.1897 34.2096 25.6567 33.4819 24.5678 33.1732C23.8025 32.9562 23.1432 32.7668 22.5703 32.6022L22.5686 32.6017C19.5477 31.7337 18.9299 31.5562 17.8301 31.6527L17.816 31.6541C14.2746 32.0338 13.4629 32.1499 11.6793 33.1764C10.3963 33.9148 9.14768 34.778 7.95862 35.7467L7.74114 35.4948C7.2009 34.8693 6.25276 34.7999 5.62747 35.34L0.502959 39.7646C-0.107392 40.2914 -0.171162 41.2129 0.360576 41.8191L7.11428 49.5156C7.61985 50.0917 8.49934 50.1639 9.07336 49.6784L9.08694 49.6669L14.1921 45.2587C14.819 44.7174 14.8884 43.7721 14.347 43.1451L14.1471 42.9136L14.4764 42.6293C15.3504 41.8745 16.6658 41.6489 17.9943 42.0256L21.391 42.9891C21.7801 43.0991 22.1853 42.8734 22.2957 42.4843C22.4061 42.095 22.18 41.69 21.7908 41.5797L18.394 40.6162C16.5897 40.1046 14.7672 40.4427 13.519 41.5204L13.1897 41.8047L8.91604 36.8554C10.0343 35.9473 11.2069 35.1386 12.4101 34.446C13.9288 33.5719 14.4388 33.4895 17.965 33.1115C18.7879 33.0399 19.3029 33.1878 22.1166 33.9961L22.1303 34C22.5053 34.1077 22.8293 34.1971 23.1098 34.2744L23.1098 34.2744C24.4668 34.6487 24.8035 34.7415 24.9567 35.2706C25.0397 35.5566 24.9917 35.8303 24.9883 35.8499C24.9882 35.8506 24.9881 35.851 24.9881 35.851C24.9521 36.0084 24.8844 36.1473 24.8096 36.2482C24.7003 36.3954 24.5353 36.5388 24.143 36.4847C22.8935 36.3128 20.0889 35.9373 19.5234 35.8616L19.4232 35.8481C19.0212 35.7948 18.6536 36.0761 18.6 36.4772C18.5464 36.8781 18.8279 37.2467 19.2289 37.3003C19.2621 37.3047 22.5599 37.7456 23.9432 37.9359C25.0873 38.0936 25.9356 37.4779 26.3015 36.5594C26.338 36.5443 33.6779 33.5191 33.7132 33.5016C34.4868 33.1087 35.2177 33.0189 35.6785 33.7587C36.2089 34.7065 35.2684 35.4137 35.0314 35.5717L25.2604 41.1648L25.2474 41.1725C25.2397 41.1771 25.2309 41.1825 25.2234 41.1874C25.0618 41.2926 24.8893 41.3864 24.7105 41.4662C24.3411 41.6312 24.1754 42.0645 24.3404 42.4338C24.5054 42.8033 24.939 42.969 25.3079 42.8038C25.5513 42.6951 25.787 42.5675 26.0053 42.4264L26.0149 42.4209C26.359 42.2239 35.7874 36.8276 35.8149 36.8097C38.4716 35.0799 37.1937 32.097 35.1657 31.7725ZM13.2382 44.1025C13.2409 44.1057 13.2473 44.113 13.2463 44.1269C13.2447 44.147 8.79918 47.9804 8.24037 48.4623L8.18293 48.5118L1.47161 40.8638L6.58498 36.4485C6.58811 36.4459 6.59651 36.439 6.6092 36.4405C6.62317 36.4415 6.62952 36.4489 6.63215 36.4521L13.2382 44.1025ZM29.3731 33.7083L31.626 31.1052C32.3494 30.2692 33.7416 30.8058 33.7008 31.9179L29.3731 33.7083ZM24.326 23.3157C23.8478 23.3273 23.4432 23.0034 23.3062 22.7617C22.3057 21.0013 19.6382 21.7431 19.6399 23.731C19.6427 26.367 22.0135 28.4707 24.2998 29.6013C25.9227 28.7836 27.6774 27.4058 28.4697 25.7688C28.6459 25.4046 29.0838 25.2521 29.4481 25.4285C29.8122 25.6047 29.9646 26.0428 29.7883 26.407C28.816 28.4161 26.715 30.0799 24.7387 31.0175C24.4702 31.1451 24.1481 31.152 23.8652 31.0184C21.1165 29.721 18.1783 27.1258 18.1748 23.7325C18.1718 20.5049 22.2917 19.0457 24.2965 21.6143C25.9502 19.509 29.14 20.0396 30.1404 22.3816C30.2993 22.7535 30.1265 23.184 29.7545 23.3429C29.3823 23.5019 28.9519 23.3288 28.793 22.957C28.2038 21.577 26.2298 21.2353 25.2863 22.7513C25.088 23.0706 24.7217 23.3064 24.326 23.3157Z" fill="#0090A1"/>
</svg>

<svg width="49" height="50" viewBox="0 0 49 50" fill="none" xmlns="http://www.w3.org/2000/svg"><path fill-rule="evenodd" clip-rule="evenodd" d="M47.712 7.95L41.305.483a1.524 1.524 0 00-2.103-.117l-5.105 4.409a1.488 1.488 0 00-.515 1.025c-.03.399.099.786.36 1.088l.2.232-.33.284c-.873.755-2.189.981-3.517.604l-.18-.051h-.002L26.459 6.92c-.689-.16-2.472-.413-4.175.686l-.181.104-.004.002-9.625 5.51c-.89.581-2.131 2.031-1.13 3.787l.011.02c.429.7 1.047 1.116 1.768 1.231a2.65 2.65 0 004.648 1.626l3.616-4.178c.146-.17.27-.355.368-.554l.15-.062c.194.731.727 1.459 1.816 1.768.753.213 1.407.401 1.98.566 2.88.83 3.712 1.07 4.772.953 3.541-.38 4.353-.496 6.136-1.522a28.133 28.133 0 003.721-2.57l.218.251a1.498 1.498 0 002.113.155l4.86-4.196c.753-.65.838-1.793.191-2.548zM16.663 18.928c-.733.847-2.115.286-2.075-.812l4.328-1.79-2.253 2.602zm19.216-3.34c-1.518.873-2.029.956-5.547 1.333-.792.085-1.444-.102-4.149-.88-.585-.168-1.265-.364-2.062-.59-.576-.163-.726-.47-.789-.688a1.376 1.376 0 01-.031-.58v-.005l.002-.006c0-.006.003-.012.004-.018 0-.002.046-.198.172-.368.11-.148.274-.291.667-.237 1.25.172 4.06.548 4.621.623l.099.014a.732.732 0 10.194-1.453c-.033-.004-3.33-.445-4.714-.635-1.295-.179-2.058.621-2.359 1.377l-1.068.44c-2.445 1.008-4.021 1.66-5.043 2.083-1.81.75-1.874.776-1.941.783h-.008a.77.77 0 00-.166.037c-1.178.165-1.985-1.368-.503-2.356l9.77-5.593.003-.001a.775.775 0 00.035-.022c1.223-.796 2.525-.62 3.045-.501l3.784 1.073c1.804.511 3.627.173 4.875-.905l.33-.284 4.273 4.95a26.665 26.665 0 01-3.494 2.409zm10.685-6.2l-.034.03c-.436.377-4.83 4.178-4.85 4.175-.028-.002-6.67-7.671-6.626-7.709l5.105-4.408a.053.053 0 01.063-.005L46.6 8.904a.345.345 0 01-.036.485zM35.166 31.774c-.089-2.363-3.07-3.45-4.648-1.626l-3.616 4.178c-.147.17-.27.355-.368.554l-.15.062c-.194-.731-.727-1.46-1.816-1.768-.766-.217-1.425-.406-1.998-.57l-.001-.001c-3.021-.868-3.64-1.046-4.739-.95l-.014.002c-3.541.38-4.353.496-6.137 1.522a28.11 28.11 0 00-3.72 2.57l-.218-.251a1.5 1.5 0 00-2.114-.155L.503 39.765a1.45 1.45 0 00-.142 2.054l6.753 7.697c.506.576 1.385.648 1.96.162l.013-.011 5.105-4.408a1.498 1.498 0 00.155-2.114l-.2-.231.33-.285c.873-.755 2.189-.98 3.517-.603l3.397.963a.733.733 0 00.4-1.41l-3.397-.963c-1.804-.511-3.627-.173-4.875.904l-.33.285-4.273-4.95a26.653 26.653 0 013.494-2.409c1.519-.874 2.029-.956 5.555-1.334.823-.072 1.338.076 4.152.884l.013.004c.375.108.7.197.98.274 1.357.375 1.694.468 1.847.997.083.286.035.56.031.579v.001a1.087 1.087 0 01-.178.397c-.11.147-.275.29-.667.237-1.25-.172-4.054-.548-4.62-.623l-.1-.014a.732.732 0 10-.194 1.452c.033.005 3.33.446 4.714.636 1.144.158 1.993-.458 2.358-1.377.037-.015 7.377-3.04 7.412-3.057.774-.393 1.505-.483 1.965.257.53.947-.41 1.655-.647 1.813l-9.77 5.593-.014.008a3.726 3.726 0 01-.537.294.733.733 0 00.598 1.337 5.19 5.19 0 00.697-.378l.01-.005c.344-.197 9.772-5.593 9.8-5.611 2.657-1.73 1.379-4.713-.65-5.038zm-21.928 12.33c.003.003.01.01.008.024-.001.02-4.447 3.853-5.006 4.335l-.057.05-6.711-7.648 5.113-4.415a.031.031 0 01.024-.008.03.03 0 01.023.011l6.606 7.65zm16.135-10.395l2.253-2.603c.723-.836 2.116-.3 2.075.813l-4.328 1.79zm-5.047-10.392c-.478.011-.883-.313-1.02-.554-1-1.76-3.668-1.019-3.666.969.003 2.636 2.373 4.74 4.66 5.87 1.623-.817 3.377-2.195 4.17-3.832a.732.732 0 111.318.638c-.972 2.01-3.073 3.673-5.05 4.61-.268.128-.59.135-.873.001-2.748-1.297-5.687-3.892-5.69-7.285-.003-3.228 4.117-4.687 6.122-2.119 1.653-2.105 4.843-1.574 5.843.768a.733.733 0 01-1.347.575c-.59-1.38-2.563-1.722-3.507-.206-.198.32-.564.555-.96.565z" fill="#0090A1"/></svg>
